Newaita/actions/32/trash-empty.svg

<svg height="32" viewBox="0 0 32 32" width="32" xmlns="http://www.w3.org/2000/svg"><g fill="#424242"><path d="m19.84375 10.835938c.367188 0 .664062.292968.664062.660156v12.570312c0 .363282-.296874.660156-.664062.660156-.363281 0-.660156-.296874-.660156-.660156v-12.570312c0-.367188.296875-.660156.660156-.660156zm0 0"/><path d="m3.96875 5.542969h23.152344c.730468 0 1.324218.589843 1.324218 1.324219 0 .730468-.59375 1.320312-1.324218 1.320312h-23.152344c-.730469 0-1.324219-.589844-1.324219-1.320312 0-.734376.59375-1.324219 1.324219-1.324219zm0 0"/><path d="m15.214844 2.894531h1.324218c.730469 0 1.320313.59375 1.320313 1.324219v1.324219c0 .730469-.589844 1.324219-1.320313 1.324219h-1.324218c-.730469 0-1.324219-.59375-1.324219-1.324219v-1.324219c0-.730469.59375-1.324219 1.324219-1.324219zm0 0"/><path d="m15.875 10.835938c.367188 0 .664062.292968.664062.660156v12.570312c0 .363282-.296874.660156-.664062.660156-.363281 0-.660156-.296874-.660156-.660156v-12.570312c0-.367188.296875-.660156.660156-.660156zm0 0"/><path d="m5.292969 9.511719v17.199219c0 1.464843 1.179687 2.644531 2.644531 2.644531h15.878906c1.464844 0 2.644532-1.179688 2.644532-2.644531v-17.199219h-2.644532v15.875c0 .734375-.589844 1.324219-1.324218 1.324219h-13.230469c-.734375 0-1.324219-.589844-1.324219-1.324219v-15.875zm0 0"/><path d="m11.90625 10.835938c.367188 0 .664062.292968.664062.660156v12.570312c0 .363282-.296874.660156-.664062.660156-.363281 0-.660156-.296874-.660156-.660156v-12.570312c0-.367188.296875-.660156.660156-.660156zm0 0"/></g></svg>

<svg xmlns="http://www.w3.org/2000/svg" xmlns:xlink="http://www.w3.org/1999/xlink" width="32px" height="32px" viewBox="0 0 32 32" version="1.1">
<g id="surface1">
     <defs>
  <style id="current-color-scheme" type="text/css">
   .ColorScheme-Text { color:#424242; } .ColorScheme-Highlight { color:#eeeeee; }
  </style>
 </defs>
<path style="fill:currentColor" class="ColorScheme-Text" d="M 19.84375 10.835938 C 20.210938 10.835938 20.507812 11.128906 20.507812 11.496094 L 20.507812 24.066406 C 20.507812 24.429688 20.210938 24.726562 19.84375 24.726562 C 19.480469 24.726562 19.183594 24.429688 19.183594 24.066406 L 19.183594 11.496094 C 19.183594 11.128906 19.480469 10.835938 19.84375 10.835938 Z M 19.84375 10.835938 "/>
     <defs>
  <style id="current-color-scheme" type="text/css">
   .ColorScheme-Text { color:#424242; } .ColorScheme-Highlight { color:#eeeeee; }
  </style>
 </defs>
<path style="fill:currentColor" class="ColorScheme-Text" d="M 3.96875 5.542969 L 27.121094 5.542969 C 27.851562 5.542969 28.445312 6.132812 28.445312 6.867188 C 28.445312 7.597656 27.851562 8.1875 27.121094 8.1875 L 3.96875 8.1875 C 3.238281 8.1875 2.644531 7.597656 2.644531 6.867188 C 2.644531 6.132812 3.238281 5.542969 3.96875 5.542969 Z M 3.96875 5.542969 "/>
     <defs>
  <style id="current-color-scheme" type="text/css">
   .ColorScheme-Text { color:#424242; } .ColorScheme-Highlight { color:#eeeeee; }
  </style>
 </defs>
<path style="fill:currentColor" class="ColorScheme-Text" d="M 15.214844 2.894531 L 16.539062 2.894531 C 17.269531 2.894531 17.859375 3.488281 17.859375 4.21875 L 17.859375 5.542969 C 17.859375 6.273438 17.269531 6.867188 16.539062 6.867188 L 15.214844 6.867188 C 14.484375 6.867188 13.890625 6.273438 13.890625 5.542969 L 13.890625 4.21875 C 13.890625 3.488281 14.484375 2.894531 15.214844 2.894531 Z M 15.214844 2.894531 "/>
     <defs>
  <style id="current-color-scheme" type="text/css">
   .ColorScheme-Text { color:#424242; } .ColorScheme-Highlight { color:#eeeeee; }
  </style>
 </defs>
<path style="fill:currentColor" class="ColorScheme-Text" d="M 15.875 10.835938 C 16.242188 10.835938 16.539062 11.128906 16.539062 11.496094 L 16.539062 24.066406 C 16.539062 24.429688 16.242188 24.726562 15.875 24.726562 C 15.511719 24.726562 15.214844 24.429688 15.214844 24.066406 L 15.214844 11.496094 C 15.214844 11.128906 15.511719 10.835938 15.875 10.835938 Z M 15.875 10.835938 "/>
     <defs>
  <style id="current-color-scheme" type="text/css">
   .ColorScheme-Text { color:#424242; } .ColorScheme-Highlight { color:#eeeeee; }
  </style>
 </defs>
<path style="fill:currentColor" class="ColorScheme-Text" d="M 5.292969 9.511719 L 5.292969 26.710938 C 5.292969 28.175781 6.472656 29.355469 7.9375 29.355469 L 23.816406 29.355469 C 25.28125 29.355469 26.460938 28.175781 26.460938 26.710938 L 26.460938 9.511719 L 23.816406 9.511719 L 23.816406 25.386719 C 23.816406 26.121094 23.226562 26.710938 22.492188 26.710938 L 9.261719 26.710938 C 8.527344 26.710938 7.9375 26.121094 7.9375 25.386719 L 7.9375 9.511719 Z M 5.292969 9.511719 "/>
     <defs>
  <style id="current-color-scheme" type="text/css">
   .ColorScheme-Text { color:#424242; } .ColorScheme-Highlight { color:#eeeeee; }
  </style>
 </defs>
<path style="fill:currentColor" class="ColorScheme-Text" d="M 11.90625 10.835938 C 12.273438 10.835938 12.570312 11.128906 12.570312 11.496094 L 12.570312 24.066406 C 12.570312 24.429688 12.273438 24.726562 11.90625 24.726562 C 11.542969 24.726562 11.246094 24.429688 11.246094 24.066406 L 11.246094 11.496094 C 11.246094 11.128906 11.542969 10.835938 11.90625 10.835938 Z M 11.90625 10.835938 "/>
</g>
</svg>
